X:38
T:The Devil in the Kitchen
T: or The Prince of Wales Jig.
T: From Harp and Claymore.
C: W. Ross.   H.M. Piper. 
C: Adapted for Violin by J. Scott Skinner
R: fling, strathspey
M:C
L:1/8
Z: Jason R. Fruit <jason@gmail.com>
U: N=!tenuto!
K:Hp % this lets abc2midi know a playable key signature
K:^f^c=g % this tells abcm2ps what key signature to draw, since it renders Hp weird
f |: !>!e>A A<A A>A c>A & x2 A/A/A A/A/A x2 | e>A AA {agf}g2 e<a & x2 A/A/A x4 | e>A A<A A<A c>A & x2 A/A/A A/A/A x2 | B>G d/c/B {agf}g2 f<g :|
(a>NA) A/A/A (e>NA) (c>NA) | a>A A/A/A {agf}g2 f<g | a>A .A/.A/.A .A/.A/.A c>A | B>G d/c/B {agf}g2 f<g | 
(a>NA) A/A/A e/A/A (c>NA) | a>A A/A/A {agf}g2 f<g | a/g/f g>e f>d e>A | B>G d/c/B {agf}g2 f<g |
|: {F}!>!E>A, A,/A,/A, A,/A,/A, C>A, | !>!E>A, A,/A,/A, {AGF}G2 E<A | !>!E>A, A,/A,/A, A,/A,/A, C>A, |  !>!B,>G, D/C/B, {AGF}G2 F<G :|
 (a>NA) A/A/A (e>NA) (c>NA) | a>A A/A/A {agf}g2 f<g | a>A .A/.A/.A .A/.A/.A c>A | B>G d/c/B {agf}g2 f<g | 
(a>NA) A/A/A e/A/A (c>NA) | a>A A/A/A {agf}g2 f>g | a/g/f g>e f>d e>A | B>G d/c/B {agf}g2 f<g !D.C.!||

